images/icon-map.svg

<svg fill="none" height="30" viewBox="0 0 30 30" width="30" xmlns="http://www.w3.org/2000/svg"><g fill="#000"><path d="m15 13c1.93 0 3.5-1.5705 3.5-3.5s-1.57-3.5-3.5-3.5-3.5 1.5705-3.5 3.5 1.57 3.5 3.5 3.5zm0-6c1.3785 0 2.5 1.1215 2.5 2.5s-1.1215 2.5-2.5 2.5-2.5-1.1215-2.5-2.5 1.1215-2.5 2.5-2.5z"/><path d="m14.9115 27.3785 7.6705-11.0785c2.877-3.8355 2.461-10.14-.8905-13.491-1.811-1.8115-4.219-2.809-6.78-2.809s-4.96898.9975-6.77998 2.8085c-3.3515 3.351-3.7675 9.6555-.902 13.476zm-6.07298-23.863c1.62248-1.622 3.77898-2.5155 6.07298-2.5155s4.4505.8935 6.073 2.5155c3.025 3.0245 3.3975 8.7185.7865 12.1995l-6.8595 9.9065-6.87048-9.9215c-2.6-3.466-2.227-9.16.7975-12.1845z"/><path d="m21.0585 21.5039c-.275-.0335-.523.1635-.555.438s.164.523.438.555c5.258.619 8.0585 2.287 8.0585 3.2535 0 1.357-5.326 3.25-14 3.25s-14-1.893-14-3.25c0-.9665 2.8005-2.6345 8.0585-3.2535.274-.032.47-.281.438-.555-.0325-.2745-.2805-.4725-.555-.438-5.2645.62-8.9415 2.366-8.9415 4.2465 0 2.112 5.1525 4.25 15 4.25s15-2.138 15-4.25c0-1.8805-3.677-3.6265-8.9415-4.2465z"/></g></svg>

<svg width="30" height="30" viewBox="0 0 30 30" fill="none" xmlns="http://www.w3.org/2000/svg">
<path d="M15 13C16.93 13 18.5 11.4295 18.5 9.5C18.5 7.5705 16.93 6 15 6C13.07 6 11.5 7.5705 11.5 9.5C11.5 11.4295 13.07 13 15 13ZM15 7C16.3785 7 17.5 8.1215 17.5 9.5C17.5 10.8785 16.3785 12 15 12C13.6215 12 12.5 10.8785 12.5 9.5C12.5 8.1215 13.6215 7 15 7Z" fill="black"/>
<path d="M14.9115 27.3785L22.582 16.3C25.459 12.4645 25.043 6.16 21.6915 2.809C19.8805 0.9975 17.4725 0 14.9115 0C12.3505 0 9.94252 0.9975 8.13152 2.8085C4.78002 6.1595 4.36402 12.464 7.22952 16.2845L14.9115 27.3785ZM8.83852 3.5155C10.461 1.8935 12.6175 1 14.9115 1C17.2055 1 19.362 1.8935 20.9845 3.5155C24.0095 6.54 24.382 12.234 21.771 15.715L14.9115 25.6215L8.04102 15.7C5.44102 12.234 5.81402 6.54 8.83852 3.5155Z" fill="black"/>
<path d="M21.0585 21.5039C20.7835 21.4704 20.5355 21.6674 20.5035 21.9419C20.4715 22.2164 20.6675 22.4649 20.9415 22.4969C26.1995 23.1159 29 24.7839 29 25.7504C29 27.1074 23.674 29.0004 15 29.0004C6.326 29.0004 1 27.1074 1 25.7504C1 24.7839 3.8005 23.1159 9.0585 22.4969C9.3325 22.4649 9.5285 22.2159 9.4965 21.9419C9.464 21.6674 9.216 21.4694 8.9415 21.5039C3.677 22.1239 0 23.8699 0 25.7504C0 27.8624 5.1525 30.0004 15 30.0004C24.8475 30.0004 30 27.8624 30 25.7504C30 23.8699 26.323 22.1239 21.0585 21.5039Z" fill="black"/>
</svg>
